X:210 
T:Tim Dillon's Reel 
F:file ID: cre.5/210tim_d
B:CRE5.206 (Ril Thaidhg DiolÃÂÃÂÃÂÃÂºin)
M:4/4
Q:180
R:reel
K:D
B2AB dBAF|B2AB defd|B2Bc dedB|ABdf gfed|
B2AB dBAF|B2AB defd|B2Bc dedB|ABdf gfec||
dfaf bfaf|dfaf gbaf|agef fddB|ABdf gfec|
dfaf bfaf|bfaf gabf|afeg fddB|ABdf gfed|]

%%%

